assets/Keycap 9/Flat/keycap_9_flat.svg

<svg width="32" height="32" viewBox="0 0 32 32" fill="none" xmlns="http://www.w3.org/2000/svg">
<path d="M2 6C2 3.79086 3.79086 2 6 2H26C28.2091 2 30 3.79086 30 6V26C30 28.2091 28.2091 30 26 30H6C3.79086 30 2 28.2091 2 26V6Z" fill="#00A6ED"/>
<path d="M20.8876 15.4811C21.22 14.7921 21.4062 14.0194 21.4062 13.2031C21.4063 10.3036 19.0557 7.95312 16.1563 7.95312C13.2568 7.95312 10.9062 10.3036 10.9062 13.2031C10.9062 15.7362 12.7002 17.8503 15.0869 18.3442L13.1956 21.429C12.6904 22.253 12.9488 23.3305 13.7728 23.8357C14.5968 24.3408 15.6742 24.0824 16.1794 23.2585L20.7107 15.8678C20.7867 15.7437 20.8455 15.6139 20.8876 15.4811ZM17.9063 13.2031C17.9063 14.1696 17.1227 14.9531 16.1563 14.9531C15.1898 14.9531 14.4063 14.1696 14.4063 13.2031C14.4063 12.2366 15.1898 11.4531 16.1563 11.4531C17.1227 11.4531 17.9063 12.2366 17.9063 13.2031Z" fill="white"/>
</svg>

<svg xmlns="http://www.w3.org/2000/svg" width="32" height="32" fill="none"><path fill="#00A6ED" d="M2 6a4 4 0 0 1 4-4h20a4 4 0 0 1 4 4v20a4 4 0 0 1-4 4H6a4 4 0 0 1-4-4V6Z"/><path fill="#fff" d="M20.888 15.481a5.25 5.25 0 1 0-5.8 2.863l-1.892 3.085a1.75 1.75 0 0 0 2.983 1.83l4.532-7.391c.076-.124.135-.254.177-.387Zm-2.982-2.278a1.75 1.75 0 1 1-3.5 0 1.75 1.75 0 0 1 3.5 0Z"/></svg>
